X:1
T:Title
%%score { 1 | 2 }
L:1/8
Q:1/4=100
M:4/4
K:F
V:1 treble nm="Grand Piano"
V:2 bass 
V:1
 [CFA]2 [CFA][CGB] [CAc]2 [A,F]2 | [CFA]2 [B,EG]2 [A,F]3 [CFA] | [CAc]3 [Af] [Ge]2 [Fd]2 | %3
w: R.~E.~Hudson * * * *|||
 [Ec]6 z2 | F2 FG A2 [GB]2 | [Ac]2 [Af]2 [Ac]3 [FA] | [Fc]3 [DGB] [CFA]2 [B,EG]2 | F6 z2 | %8
w: |||||
 F2 FG A2 [GB]2 | [Ac]2 [Af]2 [Ac]3 [Fc] | [Fd]3 [Fd] [Fc]2 [FA]2 | [EG]6 z2 | F2 FG A2 [GB]2 | %13
w: |||||
 [Ac]2 [Af]2 [Ac]3 [FA] | [Fc]3 [DGB] [CFA]2 [B,EG]2 |[M:8/4] [A,F]8 z8 |] %16
w: |||
V:2
 F,2 F,F, F,2 F,2 | C,2 C,2 F,3 F, | F,3 [F,C] [G,C]2 [G,=B,]2 | [C,C]6 z2 | %4
 [F,A,]2 [F,A,][F,B,F] [F,CF]2 [F,C]2 | [F,C]2 [F,C]2 [F,F]3 [F,C] | [F,A,]3 B,, C,2 C,2 | %7
 [F,A,]6 z2 | [F,A,]2 [F,A,][F,B,F] [F,CF]2 [F,C]2 | [F,C]2 [F,C]2 [F,F]3 [F,A,] | %10
 [B,,B,]3 [B,,B,] [F,A,]2 [F,C]2 | [C,C]6 z2 | [F,A,]2 [F,A,][F,B,F] [F,CF]2 [F,C]2 | %13
 [F,C]2 [F,C]2 [F,F]3 [F,C] | [F,A,]3 B,, C,2 C,2 |[M:8/4] F,8 z8 |] %16

